app/assets/images/icons/active/housekeeping.svg

<?xml version="1.0" encoding="UTF-8" standalone="no"?>
<svg width="32px" height="232px" viewBox="0 0 32 232" version="1.1" xmlns="http://www.w3.org/2000/svg" xmlns:xlink="http://www.w3.org/1999/xlink" xmlns:sketch="http://www.bohemiancoding.com/sketch/ns">
    <title>housekeeping</title>
    <description>Created with Sketch (http://www.bohemiancoding.com/sketch)</description>
    <defs></defs>
    <g id="Hotel-facilities" stroke="none" stroke-width="1" fill="none" fill-rule="evenodd" sketch:type="MSPage">
        <path d="M28.9473737,146.423905 L28.3795834,141.679905 C28.1056147,139.589905 27.6370884,138.786905 25.6885354,138.761905 C25.6885354,138.761905 25.6885354,138.758905 25.6865501,138.757905 L16.5999202,138.757905 C15.8107711,138.757905 15.0722466,139.294905 14.7049697,140.196905 L13.3152732,143.596905 L8.62008426,139.549905 C8.31732895,139.239905 7.40608509,138.780905 7.03583023,138.659905 L7.03583023,131.994905 L10.127905,127.573905 C10.2311396,127.316905 10.3313962,127.040905 10.1338608,126.845905 C10.1338608,126.845905 9.85889944,126.608905 9.60279822,126.428905 C9.55614412,126.398905 9.1253382,126.161905 9.08463995,126.143905 C8.82159025,126.030905 8.55159207,125.901905 8.22799131,125.794905 C8.13071256,125.758905 7.83391309,125.680905 7.79321483,125.673905 C7.50435649,125.608905 7.32071802,125.568905 6.91572075,125.560905 C6.88296362,125.559905 6.34793046,125.571905 6.29333524,125.573905 C5.90124229,125.579905 5.75433152,125.612905 5.4416498,125.680905 C5.35826801,125.697905 5.13393129,125.744905 5.04657894,125.773905 C4.77161756,125.868905 4.41426702,126.023905 4.21276103,126.139905 C4.1800039,126.158905 3.83257977,126.378905 3.72239669,126.471905 C3.37298728,126.751905 3.2260765,126.989905 3.2260765,126.989905 C3.01662939,127.169905 2.93920344,127.528905 3.0513718,127.781905 L6.1841448,132.019905 L6.14940238,138.896905 C6.11068941,138.925905 5.73844927,139.282905 5.70172158,139.319905 C4.70312537,140.301905 5.23617325,141.465905 6.36679062,142.602905 L12.8368205,148.286905 C13.2279208,148.706905 14.2036863,148.999905 14.820116,148.999905 L26.7814324,148.999905 C28.6525595,148.997905 29.1836221,147.880905 28.9473737,146.423905 C28.9473737,146.423905 29.1836221,147.880905 28.9473737,146.423905 L28.9473737,146.423905 L28.9473737,146.423905 Z M14.6493818,136.787905 L17.5091787,136.787905 C18.5286204,137.507905 19.7446048,137.929905 21.0568754,137.929905 C22.369146,137.929905 23.589101,137.507905 24.6065574,136.787905 L27.6499927,136.787905 C28.1701363,136.787905 28.4629652,136.355905 28.2981869,135.825905 L27.4971261,131.165905 C27.4971261,131.115905 27.503082,131.066905 27.503082,131.015905 L27.5050672,131.015905 C27.5050672,128.627905 26.3982732,126.674905 24.7147552,125.251905 C23.2277799,123.603905 19.4478054,123.556905 17.4734437,125.265905 C15.7462495,126.507905 14.6086836,128.619905 14.6066983,131.015905 C14.6066983,131.087905 14.6146394,131.155905 14.61861,131.228905 L14.003173,135.825905 C13.8364094,136.353905 14.1292383,136.787905 14.6493818,136.787905 C14.6493818,136.787905 14.1292383,136.787905 14.6493818,136.787905 L14.6493818,136.787905 L14.6493818,136.787905 Z M16.7676764,130.224905 L25.3430965,130.224905 C25.3877653,130.483905 25.4185372,130.744905 25.4225077,131.017905 C25.4145666,133.599905 23.4650209,135.689905 21.0568754,135.693905 C18.6447593,135.689905 16.694221,133.599905 16.6922357,131.017905 C16.6922357,130.744905 16.7269781,130.483905 16.7676764,130.224905 L16.7676764,130.224905 Z M16.7676764,130.224905" id="housekeeping--white" fill="#206FAC" sketch:type="MSShapeGroup"></path>
        <path d="M28.9473737,106.423905 L28.3795834,101.679905 C28.1056147,99.5899054 27.6370884,98.7869054 25.6885354,98.7619054 C25.6885354,98.7619054 25.6885354,98.7589054 25.6865501,98.7579054 L16.5999202,98.7579054 C15.8107711,98.7579054 15.0722466,99.2949054 14.7049697,100.196905 L13.3152732,103.596905 L8.62008426,99.5499054 C8.31732895,99.2399054 7.40608509,98.7809054 7.03583023,98.6599054 L7.03583023,91.9949054 L10.127905,87.5739054 C10.2311396,87.3169054 10.3313962,87.0409054 10.1338608,86.8459054 C10.1338608,86.8459054 9.85889944,86.6089054 9.60279822,86.4289054 C9.55614412,86.3989054 9.1253382,86.1619054 9.08463995,86.1439054 C8.82159025,86.0309054 8.55159207,85.9019054 8.22799131,85.7949054 C8.13071256,85.7589054 7.83391309,85.6809054 7.79321483,85.6739054 C7.50435649,85.6089054 7.32071802,85.5689054 6.91572075,85.5609054 C6.88296362,85.5599054 6.34793046,85.5719054 6.29333524,85.5739054 C5.90124229,85.5799054 5.75433152,85.6129054 5.4416498,85.6809054 C5.35826801,85.6979054 5.13393129,85.7449054 5.04657894,85.7739054 C4.77161756,85.8689054 4.41426702,86.0239054 4.21276103,86.1399054 C4.1800039,86.1589054 3.83257977,86.3789054 3.72239669,86.4719054 C3.37298728,86.7519054 3.2260765,86.9899054 3.2260765,86.9899054 C3.01662939,87.1699054 2.93920344,87.5289054 3.0513718,87.7819054 L6.1841448,92.0199054 L6.14940238,98.8969054 C6.11068941,98.9259054 5.73844927,99.2829054 5.70172158,99.3199054 C4.70312537,100.301905 5.23617325,101.465905 6.36679062,102.602905 L12.8368205,108.286905 C13.2279208,108.706905 14.2036863,108.999905 14.820116,108.999905 L26.7814324,108.999905 C28.6525595,108.997905 29.1836221,107.880905 28.9473737,106.423905 C28.9473737,106.423905 29.1836221,107.880905 28.9473737,106.423905 L28.9473737,106.423905 L28.9473737,106.423905 Z M14.6493818,96.7879054 L17.5091787,96.7879054 C18.5286204,97.5079054 19.7446048,97.9299054 21.0568754,97.9299054 C22.369146,97.9299054 23.589101,97.5079054 24.6065574,96.7879054 L27.6499927,96.7879054 C28.1701363,96.7879054 28.4629652,96.3559054 28.2981869,95.8259054 L27.4971261,91.1659054 C27.4971261,91.1159054 27.503082,91.0669054 27.503082,91.0159054 L27.5050672,91.0159054 C27.5050672,88.6279054 26.3982732,86.6749054 24.7147552,85.2519054 C23.2277799,83.6039054 19.4478054,83.5569054 17.4734437,85.2659054 C15.7462495,86.5079054 14.6086836,88.6199054 14.6066983,91.0159054 C14.6066983,91.0879054 14.6146394,91.1559054 14.61861,91.2289054 L14.003173,95.8259054 C13.8364094,96.3539054 14.1292383,96.7879054 14.6493818,96.7879054 C14.6493818,96.7879054 14.1292383,96.7879054 14.6493818,96.7879054 L14.6493818,96.7879054 L14.6493818,96.7879054 Z M16.7676764,90.2249054 L25.3430965,90.2249054 C25.3877653,90.4839054 25.4185372,90.7449054 25.4225077,91.0179054 C25.4145666,93.5999054 23.4650209,95.6899054 21.0568754,95.6939054 C18.6447593,95.6899054 16.694221,93.5999054 16.6922357,91.0179054 C16.6922357,90.7449054 16.7269781,90.4839054 16.7676764,90.2249054 L16.7676764,90.2249054 Z M16.7676764,90.2249054" id="housekeeping--white" fill="#FFFFFF" sketch:type="MSShapeGroup"></path>
        <path d="M28.9473737,66.4239054 L28.3795834,61.6799054 C28.1056147,59.5899054 27.6370884,58.7869054 25.6885354,58.7619054 C25.6885354,58.7619054 25.6885354,58.7589054 25.6865501,58.7579054 L16.5999202,58.7579054 C15.8107711,58.7579054 15.0722466,59.2949054 14.7049697,60.1969054 L13.3152732,63.5969054 L8.62008426,59.5499054 C8.31732895,59.2399054 7.40608509,58.7809054 7.03583023,58.6599054 L7.03583023,51.9949054 L10.127905,47.5739054 C10.2311396,47.3169054 10.3313962,47.0409054 10.1338608,46.8459054 C10.1338608,46.8459054 9.85889944,46.6089054 9.60279822,46.4289054 C9.55614412,46.3989054 9.1253382,46.1619054 9.08463995,46.1439054 C8.82159025,46.0309054 8.55159207,45.9019054 8.22799131,45.7949054 C8.13071256,45.7589054 7.83391309,45.6809054 7.79321483,45.6739054 C7.50435649,45.6089054 7.32071802,45.5689054 6.91572075,45.5609054 C6.88296362,45.5599054 6.34793046,45.5719054 6.29333524,45.5739054 C5.90124229,45.5799054 5.75433152,45.6129054 5.4416498,45.6809054 C5.35826801,45.6979054 5.13393129,45.7449054 5.04657894,45.7739054 C4.77161756,45.8689054 4.41426702,46.0239054 4.21276103,46.1399054 C4.1800039,46.1589054 3.83257977,46.3789054 3.72239669,46.4719054 C3.37298728,46.7519054 3.2260765,46.9899054 3.2260765,46.9899054 C3.01662939,47.1699054 2.93920344,47.5289054 3.0513718,47.7819054 L6.1841448,52.0199054 L6.14940238,58.8969054 C6.11068941,58.9259054 5.73844927,59.2829054 5.70172158,59.3199054 C4.70312537,60.3019054 5.23617325,61.4659054 6.36679062,62.6029054 L12.8368205,68.2869054 C13.2279208,68.7069054 14.2036863,68.9999054 14.820116,68.9999054 L26.7814324,68.9999054 C28.6525595,68.9979054 29.1836221,67.8809054 28.9473737,66.4239054 C28.9473737,66.4239054 29.1836221,67.8809054 28.9473737,66.4239054 L28.9473737,66.4239054 L28.9473737,66.4239054 Z M14.6493818,56.7879054 L17.5091787,56.7879054 C18.5286204,57.5079054 19.7446048,57.9299054 21.0568754,57.9299054 C22.369146,57.9299054 23.589101,57.5079054 24.6065574,56.7879054 L27.6499927,56.7879054 C28.1701363,56.7879054 28.4629652,56.3559054 28.2981869,55.8259054 L27.4971261,51.1659054 C27.4971261,51.1159054 27.503082,51.0669054 27.503082,51.0159054 L27.5050672,51.0159054 C27.5050672,48.6279054 26.3982732,46.6749054 24.7147552,45.2519054 C23.2277799,43.6039054 19.4478054,43.5569054 17.4734437,45.2659054 C15.7462495,46.5079054 14.6086836,48.6199054 14.6066983,51.0159054 C14.6066983,51.0879054 14.6146394,51.1559054 14.61861,51.2289054 L14.003173,55.8259054 C13.8364094,56.3539054 14.1292383,56.7879054 14.6493818,56.7879054 C14.6493818,56.7879054 14.1292383,56.7879054 14.6493818,56.7879054 L14.6493818,56.7879054 L14.6493818,56.7879054 Z M16.7676764,50.2249054 L25.3430965,50.2249054 C25.3877653,50.4839054 25.4185372,50.7449054 25.4225077,51.0179054 C25.4145666,53.5999054 23.4650209,55.6899054 21.0568754,55.6939054 C18.6447593,55.6899054 16.694221,53.5999054 16.6922357,51.0179054 C16.6922357,50.7449054 16.7269781,50.4839054 16.7676764,50.2249054 L16.7676764,50.2249054 Z M16.7676764,50.2249054" id="housekeeping--light-grey" fill="#67737B" sketch:type="MSShapeGroup"></path>
        <path d="M28.9473737,26.4239054 L28.3795834,21.6799054 C28.1056147,19.5899054 27.6370884,18.7869054 25.6885354,18.7619054 C25.6885354,18.7619054 25.6885354,18.7589054 25.6865501,18.7579054 L16.5999202,18.7579054 C15.8107711,18.7579054 15.0722466,19.2949054 14.7049697,20.1969054 L13.3152732,23.5969054 L8.62008426,19.5499054 C8.31732895,19.2399054 7.40608509,18.7809054 7.03583023,18.6599054 L7.03583023,11.9949054 L10.127905,7.57390541 C10.2311396,7.31690541 10.3313962,7.04090541 10.1338608,6.84590541 C10.1338608,6.84590541 9.85889944,6.60890541 9.60279822,6.42890541 C9.55614412,6.39890541 9.1253382,6.16190541 9.08463995,6.14390541 C8.82159025,6.03090541 8.55159207,5.90190541 8.22799131,5.79490541 C8.13071256,5.75890541 7.83391309,5.68090541 7.79321483,5.67390541 C7.50435649,5.60890541 7.32071802,5.56890541 6.91572075,5.56090541 C6.88296362,5.55990541 6.34793046,5.57190541 6.29333524,5.57390541 C5.90124229,5.57990541 5.75433152,5.61290541 5.4416498,5.68090541 C5.35826801,5.69790541 5.13393129,5.74490541 5.04657894,5.77390541 C4.77161756,5.86890541 4.41426702,6.02390541 4.21276103,6.13990541 C4.1800039,6.15890541 3.83257977,6.37890541 3.72239669,6.47190541 C3.37298728,6.75190541 3.2260765,6.98990541 3.2260765,6.98990541 C3.01662939,7.16990541 2.93920344,7.52890541 3.0513718,7.78190541 L6.1841448,12.0199054 L6.14940238,18.8969054 C6.11068941,18.9259054 5.73844927,19.2829054 5.70172158,19.3199054 C4.70312537,20.3019054 5.23617325,21.4659054 6.36679062,22.6029054 L12.8368205,28.2869054 C13.2279208,28.7069054 14.2036863,28.9999054 14.820116,28.9999054 L26.7814324,28.9999054 C28.6525595,28.9979054 29.1836221,27.8809054 28.9473737,26.4239054 C28.9473737,26.4239054 29.1836221,27.8809054 28.9473737,26.4239054 L28.9473737,26.4239054 L28.9473737,26.4239054 Z M14.6493818,16.7879054 L17.5091787,16.7879054 C18.5286204,17.5079054 19.7446048,17.9299054 21.0568754,17.9299054 C22.369146,17.9299054 23.589101,17.5079054 24.6065574,16.7879054 L27.6499927,16.7879054 C28.1701363,16.7879054 28.4629652,16.3559054 28.2981869,15.8259054 L27.4971261,11.1659054 C27.4971261,11.1159054 27.503082,11.0669054 27.503082,11.0159054 L27.5050672,11.0159054 C27.5050672,8.62790541 26.3982732,6.67490541 24.7147552,5.25190541 C23.2277799,3.60390541 19.4478054,3.55690541 17.4734437,5.26590541 C15.7462495,6.50790541 14.6086836,8.61990541 14.6066983,11.0159054 C14.6066983,11.0879054 14.6146394,11.1559054 14.61861,11.2289054 L14.003173,15.8259054 C13.8364094,16.3539054 14.1292383,16.7879054 14.6493818,16.7879054 C14.6493818,16.7879054 14.1292383,16.7879054 14.6493818,16.7879054 L14.6493818,16.7879054 L14.6493818,16.7879054 Z M16.7676764,10.2249054 L25.3430965,10.2249054 C25.3877653,10.4839054 25.4185372,10.7449054 25.4225077,11.0179054 C25.4145666,13.5999054 23.4650209,15.6899054 21.0568754,15.6939054 C18.6447593,15.6899054 16.694221,13.5999054 16.6922357,11.0179054 C16.6922357,10.7449054 16.7269781,10.4839054 16.7676764,10.2249054 L16.7676764,10.2249054 Z M16.7676764,10.2249054" id="housekeeping--dark-grey" fill="#3A434E" sketch:type="MSShapeGroup"></path>
    </g>
</svg>

<svg width="32" height="232" viewBox="0 0 32 232" xmlns="http://www.w3.org/2000/svg" xmlns:sketch="http://www.bohemiancoding.com/sketch/ns"><title>housekeeping</title><g sketch:type="MSPage" fill="none"><path d="M28.947 146.424l-.568-4.744c-.274-2.09-.742-2.893-2.691-2.918l-.002-.004h-9.087c-.789 0-1.528.537-1.895 1.439l-1.39 3.4-4.695-4.047c-.303-.31-1.214-.769-1.584-.89v-6.665l3.092-4.421c.103-.257.203-.533.006-.728 0 0-.275-.237-.531-.417l-.518-.285c-.263-.113-.533-.242-.857-.349-.097-.036-.394-.114-.435-.121-.289-.065-.472-.105-.877-.113l-.622.013c-.392.006-.539.039-.852.107l-.395.093c-.275.095-.632.25-.834.366-.033.019-.38.239-.49.332-.349.28-.496.518-.496.518-.209.18-.287.539-.175.792l3.133 4.238-.035 6.877-.448.423c-.999.982-.466 2.146.665 3.283l6.47 5.684c.391.42 1.367.713 1.983.713h11.961c1.871-.002 2.402-1.119 2.166-2.576zm-14.298-9.636h2.86c1.019.72 2.235 1.142 3.548 1.142 1.312 0 2.532-.422 3.55-1.142h3.043c.52 0 .813-.432.648-.962l-.801-4.66.006-.15h.002c0-2.388-1.107-4.341-2.79-5.764-1.487-1.648-5.267-1.695-7.241.014-1.727 1.242-2.865 3.354-2.867 5.75l.012.213-.615 4.597c-.167.528.126.962.646.962zm2.118-6.563h8.575c.045.259.075.52.079.793-.008 2.582-1.957 4.672-4.366 4.676-2.412-.004-4.363-2.094-4.365-4.676 0-.273.035-.534.075-.793zm0 0" id="housekeeping--white" fill="#206FAC" sketch:type="MSShapeGroup"/><path d="M28.947 106.424l-.568-4.744c-.274-2.09-.742-2.893-2.691-2.918l-.002-.004h-9.087c-.789 0-1.528.537-1.895 1.439l-1.39 3.4-4.695-4.047c-.303-.31-1.214-.769-1.584-.89v-6.665l3.092-4.421c.103-.257.203-.533.006-.728 0 0-.275-.237-.531-.417l-.518-.285c-.263-.113-.533-.242-.857-.349-.097-.036-.394-.114-.435-.121-.289-.065-.472-.105-.877-.113l-.622.013c-.392.006-.539.039-.852.107l-.395.093c-.275.095-.632.25-.834.366-.033.019-.38.239-.49.332-.349.28-.496.518-.496.518-.209.18-.287.539-.175.792l3.133 4.238-.035 6.877-.448.423c-.999.982-.466 2.146.665 3.283l6.47 5.684c.391.42 1.367.713 1.983.713h11.961c1.871-.002 2.402-1.119 2.166-2.576zm-14.298-9.636h2.86c1.019.72 2.235 1.142 3.548 1.142 1.312 0 2.532-.422 3.55-1.142h3.043c.52 0 .813-.432.648-.962l-.801-4.66.006-.15h.002c0-2.388-1.107-4.341-2.79-5.764-1.487-1.648-5.267-1.695-7.241.014-1.727 1.242-2.865 3.354-2.867 5.75l.012.213-.615 4.597c-.167.528.126.962.646.962zm2.118-6.563h8.575c.045.259.075.52.079.793-.008 2.582-1.957 4.672-4.366 4.676-2.412-.004-4.363-2.094-4.365-4.676 0-.273.035-.534.075-.793zm0 0" fill="#fff" sketch:type="MSShapeGroup"/><path d="M28.947 66.424l-.568-4.744c-.274-2.09-.742-2.893-2.691-2.918l-.002-.004h-9.087c-.789 0-1.528.537-1.895 1.439l-1.39 3.4-4.695-4.047c-.303-.31-1.214-.769-1.584-.89v-6.665l3.092-4.421c.103-.257.203-.533.006-.728 0 0-.275-.237-.531-.417l-.518-.285c-.263-.113-.533-.242-.857-.349-.097-.036-.394-.114-.435-.121-.289-.065-.472-.105-.877-.113l-.622.013c-.392.006-.539.039-.852.107l-.395.093c-.275.095-.632.25-.834.366-.033.019-.38.239-.49.332-.349.28-.496.518-.496.518-.209.18-.287.539-.175.792l3.133 4.238-.035 6.877-.448.423c-.999.982-.466 2.146.665 3.283l6.47 5.684c.391.42 1.367.713 1.983.713h11.961c1.871-.002 2.402-1.119 2.166-2.576zm-14.298-9.636h2.86c1.019.72 2.235 1.142 3.548 1.142 1.312 0 2.532-.422 3.55-1.142h3.043c.52 0 .813-.432.648-.962l-.801-4.66.006-.15h.002c0-2.388-1.107-4.341-2.79-5.764-1.487-1.648-5.267-1.695-7.241.014-1.727 1.242-2.865 3.354-2.867 5.75l.012.213-.615 4.597c-.167.528.126.962.646.962zm2.118-6.563h8.575c.045.259.075.52.079.793-.008 2.582-1.957 4.672-4.366 4.676-2.412-.004-4.363-2.094-4.365-4.676 0-.273.035-.534.075-.793zm0 0" fill="#67737B" sketch:type="MSShapeGroup"/><path d="M28.947 26.424l-.568-4.744c-.274-2.09-.742-2.893-2.691-2.918l-.002-.004h-9.087c-.789 0-1.528.537-1.895 1.439l-1.39 3.4-4.695-4.047c-.303-.31-1.214-.769-1.584-.89v-6.665l3.092-4.421c.103-.257.203-.533.006-.728 0 0-.275-.237-.531-.417l-.518-.285c-.263-.113-.533-.242-.857-.349-.097-.036-.394-.114-.435-.121-.289-.065-.472-.105-.877-.113l-.622.013c-.392.006-.539.039-.852.107l-.395.093c-.275.095-.632.25-.834.366-.033.019-.38.239-.49.332-.349.28-.496.518-.496.518-.209.18-.287.539-.175.792l3.133 4.238-.035 6.877-.448.423c-.999.982-.466 2.146.665 3.283l6.47 5.684c.391.42 1.367.713 1.983.713h11.961c1.871-.002 2.402-1.119 2.166-2.576zm-14.298-9.636h2.86c1.019.72 2.235 1.142 3.548 1.142 1.312 0 2.532-.422 3.55-1.142h3.043c.52 0 .813-.432.648-.962l-.801-4.66.006-.15h.002c0-2.388-1.107-4.341-2.79-5.764-1.487-1.648-5.267-1.695-7.241.014-1.727 1.242-2.865 3.354-2.867 5.75l.012.213-.615 4.597c-.167.528.126.962.646.962zm2.118-6.563h8.575c.045.259.075.52.079.793-.008 2.582-1.957 4.672-4.366 4.676-2.412-.004-4.363-2.094-4.365-4.676 0-.273.035-.534.075-.793zm0 0" fill="#3A434E" sketch:type="MSShapeGroup"/></g></svg>
